!!!!SEGMENT: pl-sa--498-a-viii-138--004_anonim--eia-gentes-alleluja.krn
!!!cenid: 17xx:1331
!!!COM: Anonim
!!!COM-rismID: pe30004985
!!!CDT:
!!!CNT:
!!!OPR: Eia gentes
!!!OTL: Alleluja
!!!OMV: 004
!!!PDT:
!!!AGN:
!!!SMS-siglum: PL-SA
!!!SMS-shelfmark: 498/A VIII 138
!!!SMS-shelfwork: 001-004 M
!!!SMS-variant:
!!!SMS-altvar:
!!!NIFC-rismSourceID: 1001069393
!!!NIFC-islandoraID:
!!!URL-pdf-islandora:
!!!URL-scan: https://bc.bdsandomierz.pl/dlibra/publication/1172/edition/1133/content @EN{Scan on Cyfrowa Biblioteka Diecezjalna w Sandomierzu} @PL{Skany w portalu Cyfrowa Biblioteka Diecezjalna w Sandomierzu}
!!!ONB-nifc: UWAGA: części Eia gentes: 1. Eia gentes, 2. Recitativ, 3. Esto mihi, 4. Alleluja
!!!AIN: 1 organ 1 soprn 1 viola 2 violn
!!!key: D
**kern	**fba	**kern	**kern	**kern	**kern	**text
*part5	*part5	*part4	*part3	*part2	*part1	*part1
*staff5	*	*staff4	*staff3	*staff2	*staff1	*staff1
*I"Organo.	*	*I"Alt Viola.	*I"Violino 2do.	*I"Violino 1mo.	*I"Canto Solo.	*
*I'org	*	*I'a-vla	*I'vl 2	*I'vl 1	*I'S solo	*
*Iorgan	*	*Iviola	*Ivioln	*Ivioln	*Isoprn	*
*ICklav	*	*ICstr	*ICstr	*ICstr	*ICvox	*
*IGcont	*	*IGacmp	*IGacmp	*IGacmp	*IGsolo	*
*clefF4	*	*clefG2	*clefG2	*clefG2	*clefC1	*
*	*	*mclefC3	*	*	*mclefG2	*
*k[f#c#]	*	*k[f#c#]	*k[f#c#]	*k[f#c#]	*k[f#c#]	*
*D:	*	*D:	*D:	*D:	*D:	*
*M2/4	*	*M2/4	*M2/4	*M2/4	*M2/4	*
=1	=1	=1	=1	=1	=1	=1
*all\right	*	*all\right	*all\right	*all\right	*all\right	*
!LO:TX:a:mod=:t=4.	!	!LO:TX:a:mod=:t=3.	!LO:TX:a:mod=:t=1-	!	!LO:TX:a:mod=:t=12.	!
!LO:TX:mod=:t=P:problem=znaki [F# C# FF#]	!	!LO:TX:mod=:t=P:problem=znaki [ff# cc# f#]	!LO:TX:mod=:t=P:problem=znaki [ff# cc# f#]	!LO:TX:mod=:t=P:problem=znaki [ff# cc# f#]	!LO:TX:mod=:t=P:problem=znaki [cc# f# c#]	!
0r	.	1r	2r	8r	0r	.
.	.	.	.	8dd\	.	.
.	.	.	.	8ee\L	.	.
.	.	.	.	16dd\L	.	.
.	.	.	.	16cc#\JJ	.	.
=2	=2	=2	=2	=2	=2	=2
.	.	.	8r	8dd\L	.	.
*	*	*	*	*custos:gg	*	*
.	.	.	8dd\	8ff#\J	.	.
!	!	!	!	!LO:LB:g=original	!	!
.	.	.	8ee\L	8gg\L	.	.
.	.	.	16dd\L	16ff#\L	.	.
.	.	.	16cc#\JJ	16ee\JJ	.	.
=3	=3	=3	=3	=3	=3	=3
.	.	2r	8dd\L	8ff#\	.	.
.	.	.	8ff#\J	4dd\	.	.
.	.	.	8gg\L	.	.	.
.	.	.	16ff#\L	8cc#\	.	.
.	.	.	16ee\JJ	.	.	.
=4	=4	=4	=4	=4	=4	=4
!	!	!	!	!LO:TX:mod=:t=P:problem=mixed beam	!	!
.	.	8r	8ff#\	8dd\L	.	.
.	.	8d/L	4dd\	8f#/J	.	.
.	.	8e/	.	8g/L	.	.
.	.	8A/J	8cc#\	16f#/L	.	.
.	.	.	.	16e/JJ	.	.
=5	=5	=5	=5	=5	=5	=5
!	!	!	!LO:TX:mod=:t=P:problem=mixed beam	!	!	!
8r	.	8d/	8dd\L	8f#/L	0r	.
8D/L	.	4d/	8f#/J	8d/	.	.
8E/	.	.	8g/L	8e/	.	.
8AA/J	.	8c#/	16f#/L	8A/J	.	.
.	.	.	16e/JJ	.	.	.
=6	=6	=6	=6	=6	=6	=6
8D/	.	8d/L	8f#/L	8d/L	.	.
4D/	.	8f#/J	8d/	8d/	.	.
.	.	8g/L	8e/	8e/	.	.
8C#/	.	16f#/L	8A/J	8A/J	.	.
.	.	16e/JJ	.	.	.	.
=7	=7	=7	=7	=7	=7	=7
!LO:TX:mod=:t=P:problem=mixed beam	!	!	!	!	!	!
8D\L	.	8f#/L	8d/L	8d/L	.	.
8D\	.	8d/	8d/	8d/	.	.
8E\	.	8e/	8e/	8e/	.	.
8AA/J	.	8A/J	8A/J	8A/J	.	.
=8	=8	=8	=8	=8	=8	=8
4D/	.	4d/	4d/	4d/	.	.
8r	.	8r	8r	8r	.	.
8D/	.	8a/	8ff#\	[8ddd\	.	.
=9	=9	=9	=9	=9	=9	=9
4A\	.	4a/	4ee\	8ddd\]	0r	.
.	.	.	.	4ccc#\	.	.
4B\	.	4f#/	4dd\	.	.	.
.	.	.	.	[8bb\	.	.
=10	=10	=10	=10	=10	=10	=10
4F#\	.	4f#/	4cc#\	8bb\]	.	.
.	.	.	.	4aa\	.	.
4G\	.	8d/L	4b/	.	.	.
.	.	8e/J	.	[8gg\	.	.
=11	=11	=11	=11	=11	=11	=11
4A\	.	4e/	4cc#\	8gg\L]	.	.
.	.	.	.	16ff#\L	.	.
.	.	.	.	16ee\JJ	.	.
8F#\L	.	8f#/L	4dd\	8aa\L	.	.
8G\J	.	8b/J	.	8ff#\J	.	.
=12	=12	=12	=12	=12	=12	=12
4A\	.	4a/	4dd\	4ff#\	.	.
4AA/	.	4a/	4cc#\	4ee\	.	.
!	!	!LO:LB:g=original	!LO:LB:g=original	!	!	!
=13	=13	=13	=13	=13	=13	=13
8D/L	.	4a/	4dd\	4dd\	8r	.
8D/	.	.	.	.	8dd\	Al-
8C#/	.	4r	4r	4r	8ee\	-le-
8AA/J	.	.	.	.	(16dd\LL	-lu-
.	.	.	.	.	16cc#\JJ)	.
=14	=14	=14	=14	=14	=14	=14
!	!	!LO:TX:a:mod=:t=2.	!LO:TX:a:mod=:t=2.	!LO:TX:a:mod=:t=2.	!	!
4D/	.	1r	1r	1r	16dd\LL	-ja
.	.	.	.	.	16a\	.
.	.	.	.	.	16b\	.
.	.	.	.	.	16cc#\JJ	.
8r	.	.	.	.	16dd\LL	.
.	.	.	.	.	16ee\	.
8AA/	.	.	.	.	16ff#\	.
.	.	.	.	.	16ee\JJ	.
=15	=15	=15	=15	=15	=15	=15
4D/	.	.	.	.	16dd\LL	.
.	.	.	.	.	16a\	.
.	.	.	.	.	16b\	.
.	.	.	.	.	16cc#\JJ	.
8r	.	.	.	.	16dd\LL	.
.	.	.	.	.	16ee\	.
8AA/	.	.	.	.	16ff#\	.
.	.	.	.	.	16ee\JJ	.
!LO:LB:g=original	!	!	!	!LO:LB:g=original	!	!
=16	=16	=16	=16	=16	=16	=16
4D/	.	4r	4r	4r	4dd\	.
8r	.	8r	8r	8r	8r	.
8d\	.	8dd\	8dd\	8dd\	8dd\	Al-
=17	=17	=17	=17	=17	=17	=17
8c#\L	.	8cc#/L	8cc#/L	8cc#/L	8cc#\L	.
8B\	.	8b/	8b/	8b/	8b\	.
8A\	.	8a/	8a/	8a/	8a\	.
8G\J	.	8g/J	8g/J	8g/J	8g\J	.
=18	=18	=18	=18	=18	=18	=18
4F#\	.	4f#/	4f#/	4f#/	4f#/	.
8r	.	8r	8r	8r	8r	.
8B\	.	8b/	8b/	8b/	8b\	.
=19	=19	=19	=19	=19	=19	=19
8A\L	.	8a/L	8a/L	8a/L	8a/L	.
8G\	.	8g/	8g/	8g/	8g/	.
8F#\	.	8f#/	8f#/	8f#/	8f#/	.
*	*	*	*	*	*custos:d	*
8E\J	.	8e/J	8e/J	8e/J	8e/J	.
!	!	!	!	!	!LO:PB:g=original	!
=20	=20	=20	=20	=20	=20	=20
4D/	.	4d/	4d/	4d/	8d/L	.
.	.	.	.	.	16e/L	.
.	.	.	.	.	16f#/JJ	.
8r	.	4r	4r	4r	16g\LL	.
.	.	.	.	.	16a\	.
8AA/	.	.	.	.	16b\	.
.	.	.	.	.	16cc#\JJ	.
=21	=21	=21	=21	=21	=21	=21
!	!	!	!	!LO:TX:a:mod=:t=2.	!	!
!	!	!	!	!LO:TX:b:mod=:t=2.	!	!
!	!	!LO:TX:a:mod=:t=12.	!LO:TX:a:mod=:t=2.	!LO:TX:b:mod=:t=2.	!	!
8D/L	.	0r	1r	1r	16dd\LL	.
.	.	.	.	.	16a\	.
8D/	.	.	.	.	16b\	.
.	.	.	.	.	16cc#\JJ	.
8D/	.	.	.	.	16dd\LL	.
.	.	.	.	.	16ee\	.
8D/J	.	.	.	.	16ff#\	.
.	.	.	.	.	16ee\JJ	.
=22	=22	=22	=22	=22	=22	=22
8D/L	.	.	.	.	8dd\L	.
8D/	.	.	.	.	16ff#\L	.
.	.	.	.	.	16ee\JJ	.
8D/	.	.	.	.	16dd\LL	.
.	.	.	.	.	16cc#\	.
8D/J	.	.	.	.	16b\	.
.	.	.	.	.	16a\JJ	.
=23	=23	=23	=23	=23	=23	=23
8E\L	#	.	8b/L	8gg#X\L	4g#X/	.
8E\	.	.	8b/	8gg#\	.	.
8E\	.	.	8b/	8gg#\	16r	.
.	.	.	.	.	16g#\LL	.
8E\J	.	.	8b/J	8gg#\J	16a\	.
.	.	.	.	.	16b\JJ	.
=24	=24	=24	=24	=24	=24	=24
8E\L	6 4	.	8cc#\L	8aa\L	16a\LL	.
.	.	.	.	.	16g#X\	.
8E\	.	.	8cc#\	8aa\	16a\	.
.	.	.	.	.	16cc#\JJ	.
8E\	.	.	8cc#\	8aa\	16a\LL	.
.	.	.	.	.	16g#X\	.
8E\J	.	.	8cc#\J	8aa\J	16a\	.
.	.	.	.	.	16cc#\JJ	.
=25	=25	=25	=25	=25	=25	=25
8E\L	5 #	0r	8dd\L	8bb\L	16b\LL	.
.	.	.	.	.	16a\	.
8E\	.	.	8dd\	8bb\	16b\	.
.	.	.	.	.	16dd\JJ	.
8E\	.	.	8dd\	8bb\	16b\LL	.
.	.	.	.	.	16a\	.
8E\J	.	.	8dd\J	8bb\J	16b\	.
.	.	.	.	.	16dd\JJ	.
!	!	!	!	!	!LO:LB:g=original	!
=26	=26	=26	=26	=26	=26	=26
8E\L	6 4	.	8aa\L	8ccc#\L	16cc#\LL	.
.	.	.	.	.	16b\	.
8E\	.	.	8aa\	8ccc#\	16cc#\	.
.	.	.	.	.	16ee\JJ	.
8E\	.	.	8aa\	8ccc#\	16cc#\LL	.
.	.	.	.	.	16b\	.
8E\J	.	.	8aa\J	8ccc#\J	16cc#\	.
.	.	.	.	.	16ee\JJ	.
!LO:LB:g=original	!	!	!	!	!	!
=27	=27	=27	=27	=27	=27	=27
!	!	!	!	!LO:TX:a:mod=:t=d	!	!
4F#\	.	.	4aa\	4ddd\	8dd\	.
.	.	.	.	.	4b\	.
4G#X\	.	.	4r	4r	.	.
.	.	.	.	.	16cc#\LL	.
.	.	.	.	.	16dd\JJ	.
!	!	!	!LO:LB:g=original	!	!	!
=28	=28	=28	=28	=28	=28	=28
!	!	!	!LO:TX:a:mod=:t=3.	!LO:TX:a:mod=:t=2	!	!
8AA/L	.	.	1r	1r	8cc#\L	.
8BB/	.	.	.	.	16ee\L	.
.	.	.	.	.	16dd\JJ	.
!	!	!	!	!	!LO:TUP:a:problem=klamra łukowa	!
8C#/	.	.	.	.	12cc#\L	.
.	.	.	.	.	12b\	.
8D/J	.	.	.	.	.	.
.	.	.	.	.	12a\J	.
=29	=29	=29	=29	=29	=29	=29
4E\	.	0r	.	.	4a\	-le-
4EE/	.	.	.	.	4b\	-lu-
=30	=30	=30	=30	=30	=30	=30
4AA/	.	.	2r	8r	4a\	-ja
.	.	.	.	8aa\	.	.
4r	.	.	.	8bb\L	4r	.
.	.	.	.	16aa\L	.	.
!	!	!	!	!LO:SIC:v:s=16gg#JJ	!	!
.	.	.	.	16gg\JJ	.	.
=31	=31	=31	=31	=31	=31	=31
!LO:TX:a:mod=:t=3.	!	!	!	!	!LO:TX:a:mod=:t=11.	!
1r	.	.	8r	8aa\L	0r	.
*	*	*	*	*custos:ddd	*	*
.	.	.	8aa\	8ccc#\J	.	.
!	!	!	!	!LO:LB:g=original	!	!
.	.	.	8bb\L	8ddd\L	.	.
.	.	.	16aa\L	16ccc#\L	.	.
!	!	!	!LO:SIC:v:s=16gg#JJ	!	!	!
.	.	.	16gg\JJ	16bb\JJ	.	.
=32	=32	=32	=32	=32	=32	=32
.	.	.	8aa\L	8ccc#\	.	.
.	.	.	8ccc#\J	4aa\	.	.
.	.	.	8ddd\L	.	.	.
.	.	.	16ccc#\L	8gg#X\	.	.
.	.	.	16bb\JJ	.	.	.
=33	=33	=33	=33	=33	=33	=33
2r	.	8r	8ccc#\	8aa\L	.	.
.	.	8a/L	4aa\	8cc#\J	.	.
.	.	8b/	.	8dd\L	.	.
.	.	8e/J	8gg#X\	16cc#\L	.	.
.	.	.	.	16b\JJ	.	.
=34	=34	=34	=34	=34	=34	=34
8r	.	8a/	8aa\L	8cc#\L	.	.
8A\L	.	4a/	8cc#\J	8a\	.	.
8B\	.	.	8dd\L	8b\	.	.
8E\J	.	8g#X/	16cc#\L	8e\J	.	.
.	.	.	16b\JJ	.	.	.
=35	=35	=35	=35	=35	=35	=35
8A\	.	8a\L	8cc#/L	8a/L	0r	.
4A\	.	8cc#\J	8a/	8a/	.	.
.	.	8dd\L	8b/	8b/	.	.
8G#X\	.	16cc#\L	8e/J	8e/J	.	.
.	.	16b\JJ	.	.	.	.
=36	=36	=36	=36	=36	=36	=36
8A\L	.	8cc#/L	8a/L	8a/L	.	.
8A\	.	8a/	8a/	8a/	.	.
8B\	.	8b/	8b/	8b/	.	.
8E\J	.	8e/J	8e/J	8e/J	.	.
=37	=37	=37	=37	=37	=37	=37
4A\	.	4a/	4a/	4a/	.	.
8r	.	8r	8r	8r	.	.
8AA/	.	8f#/	8cc#\	[8aa\	.	.
=38	=38	=38	=38	=38	=38	=38
4E\	#	4e/	4b/	8aa\]	.	.
.	.	.	.	4gg#X\	.	.
4F#\	.	4c#/	4a/	.	.	.
.	.	.	.	[8ff#\	.	.
=39	=39	=39	=39	=39	=39	=39
4C#/	.	4c#/	4g#X/	8ff#\]	1r	.
.	.	.	.	4ee\	.	.
4D/	.	8a/L	4f#/	.	.	.
.	.	8b/J	.	[8dd\	.	.
!	!	!	!LO:LB:g=original	!	!	!
=40	=40	=40	=40	=40	=40	=40
4E\	.	4b/	4g#X/	8dd\L]	.	.
.	.	.	.	16cc#\L	.	.
.	.	.	.	16b\JJ	.	.
8C#/L	.	8a/L	4a/	8ee\L	.	.
8D/J	.	8f#/J	.	8a\J	.	.
=41	=41	=41	=41	=41	=41	=41
!LO:TX:mod=:t=P:problem=mixed beam	!	!	!	!	!	!
8E\L	.	4e/	4a/	4cc#\	2r	.
8D\	.	.	.	.	.	.
8E\	.	4e/	4g#X/	4b/	.	.
8EE/J	.	.	.	.	.	.
!LO:LB:g=original	!	!	!	!LO:LB:g=original	!	!
=42	=42	=42	=42	=42	=42	=42
!LO:TX:mod=:t=P:problem=mixed beam	!	!	!	!	!	!
8AA/L	.	4e/	4a/	4a/	8r	.
8A\	.	.	.	.	8a\	Al-
8G#X\	.	4r	4r	4r	8b\	-le-
8E\J	.	.	.	.	16a\LL	-lu-
.	.	.	.	.	16g#X\JJ	.
=43	=43	=43	=43	=43	=43	=43
!	!	!LO:TX:a:mod=:t=1.	!	!	!	!
4AA/	.	2r	8r	8r	8a\L	-ja
.	.	.	8a/	8a/	8cc#\J	.
4r	.	.	8b/L	8b/L	8dd\L	.
.	.	.	16a/L	16a/L	16cc#\L	.
.	.	.	16g#X/JJ	16g#X/JJ	16b\JJ	.
!	!	!	!	!	!LO:LB:g=original	!
=44	=44	=44	=44	=44	=44	=44
8r	.	8r	8a/L	8a/L	8cc#\	.
8A\L	.	8a/L	8a/	8a/	8ee\	al-
8B\	.	8b/	8b/	8b/	8dd\	-le-
8E\J	.	8e/J	8e/J	8e/J	16cc#\LL	-lu-
.	.	.	.	.	16b\JJ	.
!	!	!LO:LB:g=original	!	!	!	!
=45	=45	=45	=45	=45	=45	=45
8A\L	.	8a/L	8a/L	8a/L	8cc#\L	-ja
8A\	.	8a/	8a/	8a/	8ee\J	.
8B\	.	8b/	8b/	8b/	8dd\L	.
8E\J	.	8e/J	8e/J	8e/J	16cc#\L	.
.	.	.	.	.	16b\JJ	.
=46	=46	=46	=46	=46	=46	=46
4A\	.	4a/	4a/	4a/	4cc#\	.
4r	.	4r	4r	4r	8r	.
.	.	.	.	.	8cc#\	al-
=47	=47	=47	=47	=47	=47	=47
!	!	!LO:TX:a:mod=:t=4.	!	!	!	!
4A#X\	.	0r	4cc#\	4ff#\	8cc#\L	.
.	.	.	.	.	16dd\L	.
.	.	.	.	.	16ee\JJ	.
8r	.	.	8r	8r	8ff#\L	.
8A#X\	.	.	8cc#\	8ff#\	8ee\J	.
=48	=48	=48	=48	=48	=48	=48
4B\	.	.	4dd\	4ff#\	8dd\L	.
.	.	.	.	.	8cc#\J	.
4r	.	.	4r	4r	4b\	.
=49	=49	=49	=49	=49	=49	=49
4A#X\	.	.	4cc#\	4ff#\	8cc#\L	.
.	.	.	.	.	16dd\L	.
.	.	.	.	.	16ee\JJ	.
8r	.	.	8r	8r	8ff#\L	-le-
8A#\	.	.	8cc#\	8ff#\	8ee\J	.
=50	=50	=50	=50	=50	=50	=50
4B\	.	.	4dd\	4ff#\	8dd\	.
.	.	.	.	.	8cc#\	-lu-
4r	.	.	4r	4r	4b\	-ja
!	!	!	!LO:LB:g=original	!	!	!
=51	=51	=51	=51	=51	=51	=51
!	!	!	!	!LO:TX:mod=:t=P:problem=mixed beam	!LO:TX:a:mod=:t=2.	!
8B\L	.	8b/L	8b/L	8b\L	1r	.
8B\	.	8b/	8b/	8b\	.	.
8c#\	.	8cc#/	8cc#/	8cc#\	.	.
!	!	!	!	!LO:SIC:v:s=8f#/J	!	!
8F#\J	.	8f#/J	8f#/J	8e/J	.	.
=52	=52	=52	=52	=52	=52	=52
!	!	!	!	!LO:TX:mod=:t=P:problem=mixed beam	!	!
8B\L	.	8b/L	8b/L	8b\L	.	.
8B\	.	8b/	8b/	8b\	.	.
8c#\	.	8cc#/	8cc#/	8cc#\	.	.
!	!	!	!	!LO:SIC:v:s=8f#/J	!	!
8F#\J	.	8f#/J	8f#/J	8e/J	.	.
=53	=53	=53	=53	=53	=53	=53
4B\	.	4b/	4b/	4b/	8b\L	al-
.	.	.	.	.	16cc#\L	.
*	*	*	*	*	*custos:ee	*
.	.	.	.	.	16dd\JJ	.
!	!	!	!	!	!LO:LB:g=original	!
4G#X\	.	4r	4b/	4ee\	8ee\L	.
.	.	.	.	.	8dd\J	.
=54	=54	=54	=54	=54	=54	=54
!	!	!LO:TX:a:mod=:t=3.	!	!	!	!
4A\	.	1r	4cc#\	4ee\	8cc#\L	.
.	.	.	.	.	8b\J	.
4r	.	.	4r	4r	4a\	.
!LO:LB:g=original	!	!	!	!LO:LB:g=original	!	!
=55	=55	=55	=55	=55	=55	=55
4G#X\	.	.	4b/	4ee\	8b\L	.
.	.	.	.	.	16cc#\L	.
.	.	.	.	.	16dd\JJ	.
8r	.	.	8r	8r	8ee\L	.
8G#\	.	.	8b/	8ee\	8dd\J	.
=56	=56	=56	=56	=56	=56	=56
4A\	.	2r	4cc#\	4ee\	8cc#\	-le-
.	.	.	.	.	8b\	-lu-
4r	.	.	4r	4r	4a\	-ja
=57	=57	=57	=57	=57	=57	=57
!	!	!	!	!	!LO:TX:a:mod=:t=4.	!
8A\L	.	8a/L	8a/L	8a/L	0r	.
8A\	.	8a/	8a/	8a/	.	.
8B\	.	8b/	8b/	8b/	.	.
8E\J	.	8e/J	8e/J	8e/J	.	.
=58	=58	=58	=58	=58	=58	=58
8A\L	.	8a/L	8a/L	8a/L	.	.
8A\	.	8a/	8a/	8a/	.	.
8B\	.	8b/	8b/	8b/	.	.
8E\J	.	8e/J	8e/J	8e/J	.	.
=59	=59	=59	=59	=59	=59	=59
8r	.	8r	8r	8r	.	.
!	!	!	!	!LO:TX:mod=:t=P:problem=mixed beam	!	!
8B\L	.	8b/L	8b/L	8b\L	.	.
8c#\	.	8cc#/	8cc#/	8cc#\	.	.
8F#\J	.	8f#/J	8f#/J	8f#/J	.	.
=60	=60	=60	=60	=60	=60	=60
!	!	!	!	!LO:TX:mod=:t=P:problem=mixed beam	!	!
8B\L	.	8b/L	8b/L	8b\L	.	.
8B\	.	8b/	8b/	8b\	.	.
8c#\	.	8cc#/	8cc#/	8cc#\	.	.
8F#\J	.	8f#/J	8f#/J	8f#/J	.	.
=61	=61	=61	=61	=61	=61	=61
8B\	.	4b/	4b/	4b/	8r	.
4B\	.	.	.	.	8b\	Al-
.	.	4r	4r	4r	8cc#\	-le-
8A#X\	.	.	.	.	8f#/	-lu-
=62	=62	=62	=62	=62	=62	=62
!	!	!LO:TX:a:mod=:t=22.	!LO:TX:a:mod=:t=4.	!LO:TX:a:mod=:t=4.	!	!
4B\	.	0r	0r	0r	8b\	-ia
*	*	*	*	*	*	*ij
.	.	.	.	.	8b\	Al-
4A#X\	.	.	.	.	8cc#\	-le-
.	.	.	.	.	8f#/	-lu-
=63	=63	=63	=63	=63	=63	=63
8B\L	.	.	.	.	16b\LL	-ja
*	*	*	*	*	*	*Xij
.	.	.	.	.	16cc#\	.
8B\	.	.	.	.	16dd\	.
.	.	.	.	.	16ee\JJ	.
8A#X\	.	.	.	.	16ff#\LL	Al-
.	.	.	.	.	16ee\	.
8F#\J	.	.	.	.	16dd\	.
.	.	.	.	.	16ee\JJ	.
=64	=64	=64	=64	=64	=64	=64
8r	.	.	.	.	16dd\LL	.
.	.	.	.	.	16b\	.
8B\L	.	.	.	.	16a#X\	.
*	*	*	*	*	*custos:cc	*
.	.	.	.	.	16b\JJ	.
!	!	!	!	!	!LO:LB:g=original	!
8A#X\	.	.	.	.	16cc#\LL	.
.	.	.	.	.	16dd\	.
8F#\J	.	.	.	.	16ee\	.
.	.	.	.	.	16ff#\JJ	.
=65	=65	=65	=65	=65	=65	=65
4B\	.	.	.	.	16dd\LL	.
.	.	.	.	.	16b\	.
.	.	.	.	.	16a#X\	.
.	.	.	.	.	16b\JJ	.
4r	.	.	.	.	16cc#\LL	.
.	.	.	.	.	16dd\	.
.	.	.	.	.	16ee\	.
.	.	.	.	.	16ff#\JJ	.
=66	=66	=66	=66	=66	=66	=66
!LO:TX:a:mod=:t=6.	!	!	!	!	!	!
0r	.	0r	4b/	4b/	8dd\L	.
.	.	.	.	.	[8b\J	.
.	.	.	4dd\	4dd\	16b\LL]	.
.	.	.	.	.	16a\	.
.	.	.	.	.	16g\	.
.	.	.	.	.	16f#\JJ	.
!	!	!	!LO:LB:g=original	!	!	!
=67	=67	=67	=67	=67	=67	=67
!	!	!	!	!	!LO:TX:mod=:t=P:problem=mixed beam	!
.	.	.	4ee\	4ee\	8g/L	.
.	.	.	.	.	[8ee\J	.
.	.	.	4g#X/	4g#X/	16ee\LL]	.
.	.	.	.	.	16dd\	.
.	.	.	.	.	16cc#\	.
.	.	.	.	.	16b\JJ	.
=68	=68	=68	=68	=68	=68	=68
.	.	.	4a/	4a/	8cc#\L	.
.	.	.	.	.	[8a\J	.
.	.	.	4cc#\	4cc#\	16a\LL]	.
.	.	.	.	.	16g\	.
.	.	.	.	.	16f#\	.
.	.	.	.	.	16e\JJ	.
=69	=69	=69	=69	=69	=69	=69
!	!	!	!	!	!LO:TX:mod=:t=P:problem=mixed beam	!
.	.	.	4dd\	4dd\	8f#/L	.
.	.	.	.	.	[8dd\J	.
.	.	.	4f#/	4f#/	16dd\LL]	.
.	.	.	.	.	16cc#\	.
.	.	.	.	.	16b\	.
.	.	.	.	.	16a#X\JJ	.
=70	=70	=70	=70	=70	=70	=70
1r	.	0r	4g/	4g/	8b\L	.
.	.	.	.	.	8g\J	.
.	.	.	4b/	4b/	16g/LL	.
.	.	.	.	.	16f#/	.
.	.	.	.	.	16e/	.
.	.	.	.	.	16d#X/JJ	.
!	!	!	!	!	!LO:LB:g=original	!
=71	=71	=71	=71	=71	=71	=71
*custos:B	*	*	*	*	*	*
!	!	!	!	!	!LO:TX:mod=:t=P:problem=mixed beam	!
.	.	.	4cc#\	4cc#\	8e/L	.
.	.	.	.	.	[8cc#\J	.
.	.	.	4e/	4e/	16cc#\LL]	.
.	.	.	.	.	16b\	.
.	.	.	.	.	16a#X\	.
.	.	.	.	.	16g#X\JJ	.
!LO:PB:g=original	!	!	!	!	!	!
=72	=72	=72	=72	=72	=72	=72
8r	.	.	4f#/	4f#/	8a#X\L	.
8B\L	.	.	.	.	[8ff#\J	.
8A#X\	.	.	4a#X/	4a#X/	16ff#\LL]	.
.	.	.	.	.	16ee\	.
8F#\J	.	.	.	.	16dd\	.
.	.	.	.	.	16cc#\JJ	.
!	!	!	!	!LO:LB:g=original	!	!
=73	=73	=73	=73	=73	=73	=73
8r	.	.	4b/	4b/	16dd\LL	.
.	.	.	.	.	16b\	.
8B\L	.	.	.	.	16a#X\	.
.	.	.	.	.	16b\JJ	.
8A#X\	.	.	4r	4r	16cc#\LL	.
.	.	.	.	.	16dd\	.
8F#\J	.	.	.	.	16ee\	.
.	.	.	.	.	16ff#\JJ	.
=74	=74	=74	=74	=74	=74	=74
!	!	!	!LO:TX:a:mod=:t=8.	!LO:TX:a:mod=:t=7.	!	!
4B\	.	0r	0r	0r	16dd\LL	.
.	.	.	.	.	16cc#\	.
.	.	.	.	.	16b\	.
.	.	.	.	.	16a\JJ	.
4BB/	.	.	.	.	8g#X/L	.
.	.	.	.	.	8f#/J	.
=75	=75	=75	=75	=75	=75	=75
!	!	!	!	!	!LO:TUP:b:problem=klamra łukowa	!
8C#/L	.	.	.	.	12e#X/L	.
.	.	.	.	.	12f#/	.
8C#/	.	.	.	.	.	.
.	.	.	.	.	12g#X/J	.
!	!	!	!	!	!LO:TUP:a:problem=klamra łukowa	!
8C#/	.	.	.	.	12g#\L	.
.	.	.	.	.	12a\	.
8C#/J	.	.	.	.	.	.
.	.	.	.	.	12b\J	.
=76	=76	=76	=76	=76	=76	=76
8C#/L	#	.	.	.	16b\LL	.
.	.	.	.	.	16cc#\JJ	.
8C#/	.	.	.	.	4dd\	.
8C#/	.	.	.	.	.	.
8C#/J	.	.	.	.	8b\	.
=77	=77	=77	=77	=77	=77	=77
4C#/	.	.	.	.	16b\LL	.
.	.	.	.	.	16dd\	.
.	.	.	.	.	16cc#\	.
*	*	*	*	*	*custos:a	*
.	.	.	.	.	16b\JJ	.
!	!	!	!	!	!LO:LB:g=original	!
8r	.	.	.	.	8a\L	.
8E#X\	.	.	.	.	8g#X\J	.
=78	=78	=78	=78	=78	=78	=78
8F#\L	.	0r	0r	1r	8a\L	.
8G#X\	.	.	.	.	8b\	.
8A\	.	.	.	.	8cc#\	.
8B\J	.	.	.	.	8dd\J	.
=79	=79	=79	=79	=79	=79	=79
!LO:TX:mod=:t=P:problem=mixed beam	!	!	!	!	!	!
8c#\L	.	.	.	.	4a\	-le-
8B\	.	.	.	.	.	.
8c#\	4	.	.	.	4g#X/	-lu-
8C#/J	3	.	.	.	.	.
=80	=80	=80	=80	=80	=80	=80
4F#\	.	.	.	2r	4f#/	-ja
4r	.	.	.	.	4r	.
=81	=81	=81	=81	=81	=81	=81
!LO:TX:a:mod=:t=3.	!	!	!	!	!LO:TX:a:mod=:t=6.	!
1r	.	.	.	8r	0r	.
.	.	.	.	8ff#\	.	.
.	.	.	.	8gg\L	.	.
.	.	.	.	16ff#\L	.	.
.	.	.	.	16ee#X\JJ	.	.
=82	=82	=82	=82	=82	=82	=82
.	.	1r	8r	8ff#\L	.	.
.	.	.	8ff#\	8aa\J	.	.
.	.	.	8gg#X\L	8bb\L	.	.
.	.	.	16ff#\L	16aa\L	.	.
.	.	.	16ee#X\JJ	16gg#X\JJ	.	.
=83	=83	=83	=83	=83	=83	=83
2r	.	.	8ff#\L	8aa\	.	.
.	.	.	8aa\J	4ff#\	.	.
.	.	.	8bb\L	.	.	.
.	.	.	16aa\L	8ee#X\	.	.
.	.	.	16gg#X\JJ	.	.	.
=84	=84	=84	=84	=84	=84	=84
8r	.	8r	8aa\	8ff#\L	.	.
8F#\L	.	8f#/L	4ff#\	8a\J	.	.
8G#X\	7	8g#X/	.	8b/L	.	.
8C#\J	7 #	8c#/J	8ee#X\	16a/L	.	.
.	.	.	.	16g#X/JJ	.	.
!LO:LB:g=original	!	!	!	!	!	!
=85	=85	=85	=85	=85	=85	=85
8F#\	.	8f#/	8ff#\L	8a/L	1r	.
4F#\	.	4f#/	8a\J	8f#/	.	.
.	.	.	8b/L	8g#X/	.	.
8E#X\	.	8e#X/	16a/L	8c#/J	.	.
.	.	.	16g#X/JJ	.	.	.
!	!	!	!LO:LB:g=original	!	!	!
=86	=86	=86	=86	=86	=86	=86
8F#\L	.	8f#/L	8a/L	8f#/L	.	.
8F#\	.	8a/J	8f#/	8f#/	.	.
8G#X\	.	8b/L	8g#X/	8g#X/	.	.
8C#\J	.	16a/L	8c#/J	8c#/J	.	.
.	.	16g#X/JJ	.	.	.	.
!!LO:MO:ori
=87	=87	=87	=87	=87	=87	=87
!LO:TX:mod=:t=P:problem=brak taktu	!	!	!	!	!LO:TX:mod=:t=P:problem=brak taktu	!
2ryy	.	8a/L	8f#/L	8f#/L	2ryy	.
*	*	*custos:g#	*	*	*	*
.	.	8f#/J	8f#/	8f#/	.	.
!	!	!LO:LB:g=original	!	!	!	!
.	.	8g#X/L	8g#X/	8g#X/	.	.
.	.	8c#/J	8c#/J	8c#/J	.	.
!	!	!	!	!LO:LB:g=original	!	!
!!LO:MO:mod
!! =87	=87	=87	=87	=87	=87	=87
!! 8F#L	.	8a/L	8f#/L	8f#/L	2ryy	.
!! 8F#	.	8f#/J	8f#/	8f#/	.	.
!! !	!	!LO:LB:g=original	!	!	!	!
!! 8G#	.	8g#X/L	8g#X/	8g#X/	.	.
!! 8C#J	.	8c#/J	8c#/J	8c#/J	.	.
!! !	!	!	!	!LO:LB:g=original	!	!
!!LO:MO:end
=88	=88	=88	=88	=88	=88	=88
4F#\	.	4f#/	4f#/	4f#/	4r	.
4r	.	4r	4r	4r	8r	.
.	.	.	.	.	8cc#\	Al-
=89	=89	=89	=89	=89	=89	=89
!LO:TX:a:mod=:t=4.	!	!LO:TX:a:mod=:t=12.	!	!	!	!
0r	.	0r	8f#/L	8a#X/L	16cc#\LL	.
.	.	.	.	.	16dd\JJ	.
.	.	.	8f#/	8a#/	4ee\	.
.	.	.	8f#/	8a#/	.	.
.	.	.	8f#/J	8a#/J	16dd\LL	.
.	.	.	.	.	16cc#\JJ	.
=90	=90	=90	=90	=90	=90	=90
.	.	.	8B/L	8b/L	16dd\LL	.
.	.	.	.	.	16cc#\J	.
.	.	.	8B/	8b/	8b\J	.
.	.	.	8B/	8b/	8r	.
.	.	.	8B/J	8b/J	16g#X\LL	.
.	.	.	.	.	16a\JJ	.
=91	=91	=91	=91	=91	=91	=91
.	.	.	8e/L	8g#X/L	16b\LL	.
.	.	.	.	.	16cc#\JJ	.
.	.	.	8e/	8g#/	4dd\	.
.	.	.	8e/	8g#/	.	.
.	.	.	8e/J	8g#/J	16cc#\LL	.
.	.	.	.	.	16b\JJ	.
=92	=92	=92	=92	=92	=92	=92
.	.	.	8A/L	8a/L	16cc#\LL	.
.	.	.	.	.	16b\J	.
.	.	.	8A/	8a/	8a\J	.
.	.	.	8A/	8a/	8r	.
.	.	.	8A/J	8a/J	16cc#\LL	.
.	.	.	.	.	16dd\JJ	.
=93	=93	=93	=93	=93	=93	=93
8C#/L	.	0r	4A/	4a/	16ee\LL	.
.	.	.	.	.	16ff#\JJ	.
8C#/	.	.	.	.	4gg\	.
8C#/	.	.	4r	4r	.	.
8C#/J	.	.	.	.	16ff#\LL	.
.	.	.	.	.	16ee\JJ	.
!	!	!	!	!	!LO:LB:g=original	!
=94	=94	=94	=94	=94	=94	=94
!	!	!	!LO:TX:a:mod=:t=7.	!LO:TX:a:mod=:t=7.	!LO:SIC:s=(16ff#LL	!
4D/	.	.	0r	0r	16ff#\LL	.
.	.	.	.	.	16dd\	.
.	.	.	.	.	16ee\	.
!	!	!	!	!	!LO:SIC:s=16ff#JJ)	!
.	.	.	.	.	16ff#\JJ	.
!	!	!	!	!	!LO:SIC:s=(16eeLL	!
4c#\	.	.	.	.	16ee\LL	.
.	.	.	.	.	16cc#\	.
.	.	.	.	.	16dd\	.
!	!	!	!	!	!LO:SIC:s=16eeJJ)	!
.	.	.	.	.	16ee\JJ	.
=95	=95	=95	=95	=95	=95	=95
4B\	.	.	.	.	(16dd\LL	.
.	.	.	.	.	16b\	.
.	.	.	.	.	16cc#\	.
.	.	.	.	.	16dd\JJ)	.
4A\	.	.	.	.	(16cc#\LL	.
.	.	.	.	.	16a\	.
.	.	.	.	.	16b\	.
.	.	.	.	.	16cc#\JJ)	.
=96	=96	=96	=96	=96	=96	=96
4G\	.	.	.	.	(16b\LL	.
.	.	.	.	.	16g\	.
.	.	.	.	.	16a\	.
.	.	.	.	.	16b\JJ)	.
4F#\	.	.	.	.	(16a/LL	.
.	.	.	.	.	16f#/	.
.	.	.	.	.	16g/	.
.	.	.	.	.	16a/JJ)	.
=97	=97	=97	=97	=97	=97	=97
!	!	!	!	!	!LO:SIC:s=(16gLL	!
4E\	.	0r	.	.	16g\LL	.
.	.	.	.	.	16b\	.
.	.	.	.	.	16a\	.
!	!	!	!	!	!LO:SIC:s=16gJJ)	!
.	.	.	.	.	16g\JJ	.
!	!	!	!	!	!LO:SIC:s=(16gLL	!
4r	.	.	.	.	16g\LL	.
.	.	.	.	.	16b\	.
.	.	.	.	.	16a\	.
!	!	!	!	!	!LO:SIC:s=16gJJ)	!
.	.	.	.	.	16g\JJ	.
=98	=98	=98	=98	=98	=98	=98
!	!	!	!	!	!LO:SIC:s=(16cc#LL	!
4A\	.	.	1r	1r	16cc#\LL	.
.	.	.	.	.	16ee\	.
.	.	.	.	.	16dd\	.
!	!	!	!	!	!LO:SIC:s=16cc#JJ)	!
.	.	.	.	.	16cc#\JJ	.
!	!	!	!	!	!LO:SIC:s=(16cc#LL	!
4G\	.	.	.	.	16cc#\LL	.
.	.	.	.	.	16ee\	.
.	.	.	.	.	16dd\	.
!	!	!	!	!	!LO:SIC:s=16cc#JJ)	!
.	.	.	.	.	16cc#\JJ	.
=99	=99	=99	=99	=99	=99	=99
4F#\	.	.	.	.	16dd\LL	.
.	.	.	.	.	16a\	.
.	.	.	.	.	16b\	.
.	.	.	.	.	16cc#\JJ	.
8r	.	.	.	.	8dd\L	.
8G\	.	.	.	.	8b\J	.
=100	=100	=100	=100	=100	=100	=100
4A\	.	.	2r	2r	4dd\	-le-
4AA/	.	.	.	.	4ee\	-lu-
=101	=101	=101	=101	=101	=101	=101
8D/L	.	8r	8r	8r	4dd\	-ja
8D/	.	8d/L	8d/L	8d/L	.	.
8E/	.	8e/	8e/	8e/	4r	.
8AA/J	.	8A/J	8A/J	8A/J	.	.
!LO:LB:g=original	!	!	!	!	!	!
=102	=102	=102	=102	=102	=102	=102
!LO:TX:mod=:t=P:problem=mixed beam	!	!	!	!	!LO:TX:a:mod=:t=7.	!
8D\L	.	8d/L	8d/L	8d/L	0r	.
8D\	.	8d/	8d/	8d/	.	.
8E\	.	8e/	8e/	8e/	.	.
8AA/J	.	8A/J	8A/J	8A/J	.	.
=103	=103	=103	=103	=103	=103	=103
!LO:TX:mod=:t=P:problem=mixed beam	!	!	!	!	!	!
8D\L	.	8d/L	8d/L	8d/L	.	.
8D\	.	8d/	8d/	8d/	.	.
8E\	.	8e/	8e/	8e/	.	.
*	*	*	*custos:d	*	*	*
8AA/J	.	8A/J	8A/J	8A/J	.	.
!	!	!	!LO:LB:g=original	!	!	!
=104	=104	=104	=104	=104	=104	=104
!	!	!	!LO:TX:mod=:t=P:problem=13 taktów wykreślonych	!	!	!
4D/	.	4d/	4d/	4d/	.	.
8r	.	8r	8r	8r	.	.
8D/	.	8a/	8ff#\	[8ddd\	.	.
=105	=105	=105	=105	=105	=105	=105
4A\	.	4a/	4ee\	8ddd\]	.	.
.	.	.	.	4ccc#\	.	.
4B\	.	4f#/	4dd\	.	.	.
!	!	!	!	!LO:TX:mod=:t=P:problem=brak początku ligatury	!	!
.	.	.	.	[8bb\	.	.
!	!	!	!	!LO:LB:g=original	!	!
=106	=106	=106	=106	=106	=106	=106
4F#\	.	4f#/	4cc#\	8bb\]	1r	.
.	.	.	.	4aa\	.	.
4G\	.	8d/L	4b/	.	.	.
.	.	8f#/J	.	8gg\	.	.
=107	=107	=107	=107	=107	=107	=107
4A\	.	4e/	4cc#\	8gg\L	.	.
.	.	.	.	16ff#\L	.	.
.	.	.	.	16ee\JJ	.	.
8F#\L	.	8f#/L	4dd\	8aa\L	.	.
8G\J	.	8b/J	.	8dd\J	.	.
=108	=108	=108	=108	=108	=108	=108
!LO:TX:mod=:t=P:problem=mixed beam	!	!	!	!	!	!
8A\L	.	4a/	4dd\	4ff#\	2r	.
8G\	.	.	.	.	.	.
8A\	.	4a/	4cc#\	4ee\	.	.
8AA/J	.	.	.	.	.	.
=109	=109	=109	=109	=109	=109	=109
4D/	.	4a/	4dd\	4dd\	8r	.
*	*	*	*	*	*custos:ee	*
.	.	.	.	.	8dd\	al-
!	!	!	!	!	!LO:LB:g=original	!
4r	.	4r	4r	4r	8ee\	-le-
.	.	.	.	.	(16dd\LL	-lu-
.	.	.	.	.	16cc#\JJ)	.
=110	=110	=110	=110	=110	=110	=110
!LO:TX:a:mod=:t=5.	!	!LO:TX:a:mod=:t=2.	!	!	!	!
0r	.	1r	8r	8r	8dd\L	-ja
.	.	.	8dd\	8dd\	8ff#\J	.
!	!	!	!	!LO:SIC:v:s=8ee\L	!	!
.	.	.	8ee\L	8dd\L	8gg\L	.
!	!	!	!	!LO:SIC:v:s=16dd\L	!	!
.	.	.	16dd\L	16cc#\L	16ff#\L	.
!	!	!	!	!LO:SIC:v:s=16cc#\JJ	!	!
.	.	.	16cc#\JJ	16b\JJ	16ee\JJ	.
=111	=111	=111	=111	=111	=111	=111
.	.	.	8dd\L	8dd\L	8ff#\	.
.	.	.	8ff#\J	8ff#\J	4dd\	.
.	.	.	8gg\L	8gg\L	.	.
.	.	.	16ff#\L	16ff#\L	8cc#\	al-
.	.	.	16ee\JJ	16ee\JJ	.	.
=112	=112	=112	=112	=112	=112	=112
!	!	!	!	!	!LO:TX:mod=:t=P:problem=mixed beam	!
.	.	8r	8ff#\	8ff#\	8dd\L	.
.	.	4d/	4dd\	4dd\	8f#/J	.
.	.	.	.	.	16g/LL	.
.	.	.	.	.	16f#/J	.
.	.	8c#/	8cc#\	8cc#\	8e/J	.
=113	=113	=113	=113	=113	=113	=113
!	!	!	!LO:TX:mod=:t=P:problem=mixed beam	!LO:TX:mod=:t=P:problem=mixed beam	!LO:TX:mod=:t=P:problem=mixed beam	!
.	.	8d/L	8dd\L	8dd\L	8f#/L	.
.	.	8f#/J	8f#/J	8f#/J	8dd\J	.
.	.	8g/L	8g/L	8g/L	8ee\L	.
.	.	16f#/L	16f#/L	16f#/L	16dd\L	.
.	.	16e/JJ	16e/JJ	16e/JJ	16cc#\JJ	.
=114	=114	=114	=114	=114	=114	=114
2r	.	8f#/L	8f#/L	8f#/L	8dd\L	.
.	.	8d/	8d/	8d/	8dd\	.
.	.	8e/	8e/	8e/	8ee\	.
.	.	8A/J	8A/J	8A/J	8a\J	.
=115	=115	=115	=115	=115	=115	=115
8r	.	8d/L	8d/L	8d/L	8dd\L	.
!LO:TX:mod=:t=P:problem=mixed beam	!	!	!	!	!	!
8D\L	.	8d/	8d/	8d/	8dd\	.
8E\	.	8e/	8e/	8e/	8ee\	.
8AA/J	.	8A/J	8A/J	8A/J	8a\J	.
!!LO:MO:ori
=116	=116	=116	=116	=116	=116	=116
!LO:TX:mod=:t=P:problem=mixed beam	!	!LO:TX:mod=:t=P:problem=brak taktu	!LO:TX:mod=:t=P:problem=brak taktu	!LO:TX:mod=:t=P:problem=niepotrzebnie wykreślony takt	!	!
8D\L	.	2ryy	2ryy	8d/Lyy	8dd\	.
8D\	.	.	.	8d/yy	8dd\	-le-
8E\	.	.	.	8e/yy	8ee\	-lu-
8AA/J	.	.	.	8A/Jyy	8a\	-ja
!	!	!	!	!LO:LB:g=original	!	!
!!LO:MO:mod
!! =116	=116	=116	=116	=116	=116	=116
!! 8D\L	.	8dL	8dL	8d/Lyy	8dd\	.
!! 8D\	.	8d	8d	8d/yy	8dd\	-le-
!! 8E\	.	8e	8e	8e/yy	8ee\	-lu-
!! 8AA/J	.	8AJ	8AJ	8A/Jyy	8a\	-ja
!! !	!	!	!	!LO:LB:g=original	!	!
!!LO:MO:end
=117	=117	=117	=117	=117	=117	=117
4D/	.	4d/	4d/	4d/	4dd\	.
8r	.	8r	8r	8r	8r	.
!	!	!	!	!	!LO:SIC:s=[8dd	!
8D/	.	8a/	8ff#\	[8ddd\	8dd\	al-
!LO:LB:g=original	!	!	!LO:LB:g=original	!	!	!
=118	=118	=118	=118	=118	=118	=118
!	!	!	!	!	!LO:SIC:s=8dd]	!
4A\	.	4a/	4ee\	8ddd\]	8dd\	.
.	.	.	.	4ccc#\	4cc#\	.
*	*	*custos:f	*	*	*	*
4B\	.	4f#/	4dd\	.	.	.
.	.	.	.	[8bb\	[8b\	.
!	!	!LO:LB:g=original	!	!	!	!
=119	=119	=119	=119	=119	=119	=119
!	!	!	!	!	!LO:N:vis=8	!
4F#\	.	4f#/	4cc#\	8bb\]	8b\]	.
.	.	.	.	4aa\	4a\	.
4G\	.	8d/L	4b/	.	.	.
.	.	8e/J	.	8gg\	8g/	.
=120	=120	=120	=120	=120	=120	=120
4A\	.	4e/	4cc#\	4gg\	8g\L	.
.	.	.	.	.	16a\L	.
*	*	*	*	*	*custos:a	*
.	.	.	.	.	16b\JJ	.
!	!	!	!	!	!LO:LB:g=original	!
4r	.	4r	4r	4r	16a/LL	.
.	.	.	.	.	16g/	.
.	.	.	.	.	16f#/	.
.	.	.	.	.	16e/JJ	.
=121	=121	=121	=121	=121	=121	=121
!	!	!LO:TX:a:mod=:t=4.	!LO:TX:a:mod=:t=2.	!LO:TX:a:mod=:t=2.	!	!
8D\L	.	0r	1r	1r	16f#\LL	.
.	.	.	.	.	16a\	.
8E\	.	.	.	.	16b\	.
.	.	.	.	.	16cc#\JJ	.
8F#\	.	.	.	.	8dd\L	.
8G\J	.	.	.	.	8a\J	.
=122	=122	=122	=122	=122	=122	=122
4A\	.	.	.	.	4dd\	-le-
4AA/	.	.	.	.	4cc#\	-lu-
=123	=123	=123	=123	=123	=123	=123
4D/	.	.	8r	8r	8dd\	-ja
.	.	.	8dd\L	8dd\L	8dd\	al-
4r	.	.	8ee\	8ee\	8ee\	-le-
.	.	.	8a\J	8a\J	8a\	-lu-
=124	=124	=124	=124	=124	=124	=124
!LO:TX:a:mod=:t=1.	!	!	!	!	!	!
2r	.	.	8dd\L	8dd\L	8dd\	-ja
*	*	*	*	*	*	*ij
.	.	.	8dd\	8dd\	8dd\	al-
.	.	.	8ee\	8ee\	8ee\	-le-
.	.	.	8a\J	8a\J	8a\	-lu-
=125	=125	=125	=125	=125	=125	=125
!	!	!	!LO:TX:mod=:t=P:problem=mixed beam	!LO:TX:mod=:t=P:problem=mixed beam	!	!
8r	.	8r	8dd\L	8dd\L	4dd\	-ja
*	*	*	*	*	*	*Xij
!LO:TX:mod=:t=P:problem=mixed beam	!	!	!	!	!	!
8D\L	.	8d/L	8d/	8d/	.	.
8E\	.	8e/	8e/	8e/	4r	.
8AA/J	.	8A/J	8A/J	8A/J	.	.
=126	=126	=126	=126	=126	=126	=126
!LO:TX:mod=:t=P:problem=mixed beam	!	!	!	!LO:SIC:v:s=8d/L	!LO:TX:a:mod=:t=1.	!
8D\L	.	8d/L	8d/L	8c#/L	2r	.
8D\	.	8d/	8d/	8d/	.	.
8E\	.	8e/	8e/	8e/	.	.
8AA/J	.	8A/J	8A/J	8A/J	.	.
=127	=127	=127	=127	=127	=127	=127
4D/	.	4d/	4d/	4d/	8r	.
.	.	.	.	.	8f#/	Al-
4r	.	4r	4r	4r	8g\	-le-
.	.	.	.	.	8a\	-lu-
=128	=128	=128	=128	=128	=128	=128
8r	.	8r	8r	8r	8b\	-ja,
8F#\L	.	8f#/L	8f#/L	8f#/L	8f#/	Al-
8G\	.	8g/	8g/	8g/	8g\	-le-
8A\J	.	8a/J	8a/J	8a/J	8a\	-lu-
=129	=129	=129	=129	=129	=129	=129
4D/	.	4d/	4d/	4d/	4dd\	-ja.
4r	.	4r	4r	4r	4r	.
==	==	==	==	==	==	==
*-	*-	*-	*-	*-	*-	*-
!!!system-decoration: s1[(s2,s3,s4)]s5
!!!filter-modern: sic -sq | modori -m | autostem -r | tie -s | shed -k -e "s/[<>]//g" | humtr -p | shed -e "s/^custos:/Xcustos:/I" | shed -k -e "s/:TUP:/:tup:/L" | shed -e "s/yy//"¬
!!!ENC: Andrzej Borzym
!!!END: 2020-12-19
!!!ENC: Marta Lawrence
!!!END: 2022-03-07
!!!ENC-modern: Andrzej Borzym
!!!END-modern: 2022-06-18
